packages/core/src/svgs/cos.svg

<svg width="24" height="24" viewBox="0 0 24 24" fill="none" xmlns="http://www.w3.org/2000/svg">
<g clip-path="url(#clip0_31_8632)">
<path d="M0 0H24V24H0V0Z" fill="url(#paint0_linear_31_8632)"/>
<path d="M12.0214 5.14307C14.7514 5.14307 16.6414 6.81021 17.2929 7.70592C16.7657 8.43878 15.33 8.69592 14.2029 8.09592C13.5329 7.73079 12.7843 7.53372 12.0214 7.52164C9.63858 7.52164 8.27573 9.3345 7.89001 10.2859H5.4043C6.36001 7.20021 8.87144 5.14307 12.0214 5.14307Z" fill="url(#paint1_linear_31_8632)"/>
<path d="M12.0385 18.8572C14.7685 18.8572 16.6585 17.1901 17.31 16.2944C16.7828 15.5572 15.3428 15.3044 14.2157 15.9044C13.547 16.2688 12.8 16.4659 12.0385 16.4786C9.65567 16.4786 8.29282 14.6658 7.9071 13.7144H5.42139C6.37282 16.8001 8.88853 18.8572 12.0385 18.8572Z" fill="url(#paint2_linear_31_8632)"/>
<path d="M7.96276 16.3886C7.34278 16.1988 6.78175 15.8533 6.33313 15.3852C5.8845 14.9171 5.56322 14.3418 5.3999 13.7144H7.89847C8.24554 14.5196 8.81657 15.2081 9.54366 15.6982C10.2708 16.1882 11.1233 16.4591 11.9999 16.4786C11.357 16.6501 9.66847 16.8986 7.96276 16.3886Z" fill="url(#paint3_linear_31_8632)"/>
<path d="M7.94578 7.61146C7.3266 7.80195 6.76645 8.14768 6.31861 8.61577C5.87077 9.08387 5.55014 9.65875 5.38721 10.2857H7.88578C8.91435 8.02718 11.0572 7.49146 12.0001 7.52146C11.3572 7.35003 9.65578 7.10146 7.94578 7.61146Z" fill="url(#paint4_linear_31_8632)"/>
<path d="M6.857 13.2858C7.56708 13.2858 8.14272 12.7102 8.14272 12.0001C8.14272 11.29 7.56708 10.7144 6.857 10.7144C6.14692 10.7144 5.57129 11.29 5.57129 12.0001C5.57129 12.7102 6.14692 13.2858 6.857 13.2858Z" fill="url(#paint5_linear_31_8632)"/>
<path d="M6.42878 13.2858C7.13886 13.2858 7.71449 12.7102 7.71449 12.0001C7.71449 11.29 7.13886 10.7144 6.42878 10.7144C5.7187 10.7144 5.14307 11.29 5.14307 12.0001C5.14307 12.7102 5.7187 13.2858 6.42878 13.2858Z" fill="url(#paint6_linear_31_8632)"/>
</g>
<defs>
<linearGradient id="paint0_linear_31_8632" x1="4.46571" y1="4.16143" x2="29.2071" y2="32.58" gradientUnits="userSpaceOnUse">
<stop stop-color="#1A1E21"/>
<stop offset="1" stop-color="#06060A"/>
</linearGradient>
<linearGradient id="paint1_linear_31_8632" x1="12.69" y1="5.14307" x2="12.5529" y2="7.68021" gradientUnits="userSpaceOnUse">
<stop stop-color="#0DC4FA"/>
<stop offset="1" stop-color="#2797FD"/>
</linearGradient>
<linearGradient id="paint2_linear_31_8632" x1="11.9657" y1="18.8572" x2="11.9657" y2="16.3201" gradientUnits="userSpaceOnUse">
<stop stop-color="#0DC4FA"/>
<stop offset="1" stop-color="#2797FD"/>
</linearGradient>
<linearGradient id="paint3_linear_31_8632" x1="10.8299" y1="16.7015" x2="6.85276" y2="13.7658" gradientUnits="userSpaceOnUse">
<stop stop-color="#6619D1"/>
<stop offset="1" stop-color="#2A71F6"/>
</linearGradient>
<linearGradient id="paint4_linear_31_8632" x1="11.2844" y1="7.29861" x2="6.80578" y2="10.2343" gradientUnits="userSpaceOnUse">
<stop stop-color="#6619D1"/>
<stop offset="1" stop-color="#2A71F6" stop-opacity="0"/>
</linearGradient>
<linearGradient id="paint5_linear_31_8632" x1="7.71843" y1="11.1558" x2="6.677" y2="13.2858" gradientUnits="userSpaceOnUse">
<stop stop-color="#F7D037"/>
<stop offset="1" stop-color="#F36F43"/>
</linearGradient>
<linearGradient id="paint6_linear_31_8632" x1="7.36735" y1="11.1215" x2="5.54164" y2="12.8015" gradientUnits="userSpaceOnUse">
<stop stop-color="#5F24D6"/>
<stop offset="1" stop-color="#3069F4"/>
</linearGradient>
<clipPath id="clip0_31_8632">
<rect width="24" height="24" fill="white"/>
</clipPath>
</defs>
</svg>

<svg xmlns="http://www.w3.org/2000/svg" width="24" height="24" fill="none" viewBox="0 0 24 24"><g clip-path="url(#a)"><path fill="url(#b)" d="M0 0h24v24H0z"/><path fill="url(#c)" d="M12.021 5.143c2.73 0 4.62 1.667 5.272 2.563-.527.733-1.963.99-3.09.39a4.7 4.7 0 0 0-2.182-.574c-2.382 0-3.745 1.813-4.131 2.764H5.404C6.36 7.2 8.871 5.143 12.021 5.143"/><path fill="url(#d)" d="M12.039 18.857c2.73 0 4.62-1.667 5.271-2.563-.527-.737-1.967-.99-3.094-.39a4.7 4.7 0 0 1-2.177.575c-2.383 0-3.746-1.813-4.132-2.765H5.421c.952 3.086 3.468 5.143 6.618 5.143"/><path fill="url(#e)" d="M7.963 16.389A3.8 3.8 0 0 1 5.4 13.714h2.498A4.58 4.58 0 0 0 12 16.48c-.643.171-2.332.42-4.037-.09"/><path fill="url(#f)" d="M7.946 7.611a3.8 3.8 0 0 0-2.559 2.675h2.499C8.914 8.027 11.057 7.49 12 7.52c-.643-.171-2.344-.42-4.054.09"/><path fill="url(#g)" d="M6.857 13.286a1.286 1.286 0 1 0 0-2.572 1.286 1.286 0 0 0 0 2.572"/><path fill="url(#h)" d="M6.429 13.286a1.286 1.286 0 1 0 0-2.572 1.286 1.286 0 0 0 0 2.572"/></g><defs><linearGradient id="b" x1="4.466" x2="29.207" y1="4.161" y2="32.58" gradientUnits="userSpaceOnUse"><stop stop-color="#1A1E21"/><stop offset="1" stop-color="#06060A"/></linearGradient><linearGradient id="c" x1="12.69" x2="12.553" y1="5.143" y2="7.68" gradientUnits="userSpaceOnUse"><stop stop-color="#0DC4FA"/><stop offset="1" stop-color="#2797FD"/></linearGradient><linearGradient id="d" x1="11.966" x2="11.966" y1="18.857" y2="16.32" gradientUnits="userSpaceOnUse"><stop stop-color="#0DC4FA"/><stop offset="1" stop-color="#2797FD"/></linearGradient><linearGradient id="e" x1="10.83" x2="6.853" y1="16.701" y2="13.766" gradientUnits="userSpaceOnUse"><stop stop-color="#6619D1"/><stop offset="1" stop-color="#2A71F6"/></linearGradient><linearGradient id="f" x1="11.284" x2="6.806" y1="7.299" y2="10.234" gradientUnits="userSpaceOnUse"><stop stop-color="#6619D1"/><stop offset="1" stop-color="#2A71F6" stop-opacity="0"/></linearGradient><linearGradient id="g" x1="7.718" x2="6.677" y1="11.156" y2="13.286" gradientUnits="userSpaceOnUse"><stop stop-color="#F7D037"/><stop offset="1" stop-color="#F36F43"/></linearGradient><linearGradient id="h" x1="7.367" x2="5.542" y1="11.121" y2="12.802" gradientUnits="userSpaceOnUse"><stop stop-color="#5F24D6"/><stop offset="1" stop-color="#3069F4"/></linearGradient><clipPath id="a"><path fill="#fff" d="M0 0h24v24H0z"/></clipPath></defs></svg>
